Origami/32x32/apps/freeplane.svg

<svg width="32" height="32" version="1" xmlns="http://www.w3.org/2000/svg">
 <path d="m16 3.0000001c-7.7560001 0-14 6.244-14 14 0 7.755999 6.2439999 14 14 14 7.756 0 14-6.244001 14-14 0-7.7559999-6.244-14-14-14z" style="opacity:.2"/>
 <path d="m16 2.0000001c-7.7560001 0-14 6.244-14 14 0 7.755999 6.2439999 14 14 14 7.756 0 14-6.244001 14-14 0-7.7559999-6.244-14-14-14z" style="fill:#fead38"/>
 <path d="m16.217383 2.0054689a21.003038 21.015963 0 0 0 -13.477735 18.474805c0.8161233 2.42995 2.2732154 4.555889 4.1794924 6.179687a21.003038 21.015963 0 0 1 -0.0191408 -0.84082 21.003038 21.015963 0 0 1 17.841797 -20.759375c-2.340447-1.8698495-5.294371-3.0053471-8.524414-3.0542968z" style="fill:#3f3f3f"/>
 <path d="m26.319532 6.5445316a21.003038 21.015963 0 0 0 -17.319532 20.671874 21.003038 21.015963 0 0 0 0.047852 0.936523c1.297026 0.741159 2.719369 1.288578 4.236915 1.584571a21.003038 21.015963 0 0 1 15.806053 -18.68125c-0.633568-1.6853409-1.579031-3.2104758-2.771288-4.5117184z" style="fill:#3f3f3f"/>
 <path d="M 16 2 C 8.2439999 2 2 8.2440001 2 16 C 2 16.168842 2.0195214 16.33264 2.0253906 16.5 C 2.2891326 8.9794326 8.4128417 3 16 3 C 23.587158 3 29.710867 8.9794326 29.974609 16.5 C 29.980479 16.33264 30 16.168842 30 16 C 30 8.2440001 23.756 2 16 2 z" style="fill:#ffffff;opacity:.2"/>
 <circle cx="19.5" cy="18.5" r="5.5" style="opacity:.2"/>
 <circle cx="28" cy="15" r="4" style="opacity:.2"/>
 <circle cx="19.5" cy="17.5" r="5.5" style="fill:#ffffff"/>
 <circle cx="18.5" cy="19.5" r="2.5" style="fill:#3f3f3f"/>
 <circle cx="28" cy="14" r="4" style="fill:#ffffff"/>
 <circle cx="27" cy="15" r="2" style="fill:#3f3f3f"/>
 <path d="m24 27.666667s-1.790862 1.333333-4 1.333333-4-2.527241-4-4c0 0 2.120127 1.544871 3.333334 2 2.293796 0.860508 4.666666 0.666667 4.666666 0.666667z" style="opacity:.1"/>
 <path d="m24 26.666667s-1.790862 1.333333-4 1.333333-4-2.527241-4-4c0 0 2.120127 1.544871 3.333334 2 2.293796 0.860508 4.666666 0.666667 4.666666 0.666667z" style="fill:#3f3f3f"/>
 <path d="m7.9041417 20.731422c3.0800493-1.471523 5.7992253-0.652795 6.0734513 1.828678 0.274225 2.481475-2.000343 5.686011-5.0803928 7.157535-3.0800485 1.471522-8.6123296-3.166753-8.886555-5.648227-0.27422541-2.481474 4.8134483-1.866463 7.8934965-3.337986z" style="opacity:.2"/>
 <path d="m7.9041417 19.731422c3.0800493-1.471523 5.7992253-0.652795 6.0734513 1.828678 0.274225 2.481475-2.000343 5.686011-5.0803928 7.157535-3.0800485 1.471522-8.6123296-3.166753-8.886555-5.648227-0.27422541-2.481474 4.8134483-1.866463 7.8934965-3.337986z" style="fill:#cccccc"/>
 <path d="m11.107422 19.009766c-0.943621-0.059221-2.0481066 0.168882-3.2031251 0.720703-3.0800482 1.471523-8.1687567 0.85837-7.8945313 3.339843 0.012549914 0.113565 0.048195109 0.235616 0.08203125 0.357422 0.64134216-1.731801 5.0361448-1.370835 7.8125-2.697265 3.0513591-1.457816 5.7458841-0.663946 6.0625001 1.763672 0.039016-0.319085 0.045102-0.63151 0.011719-0.933594-0.171392-1.550921-1.298393-2.45208-2.871094-2.550781z" style="fill:#ffffff;opacity:.2"/>
</svg>

<svg xmlns="http://www.w3.org/2000/svg" width="32" height="32" version="1">
 <path style="opacity:0.2" d="M 16,3.0000001 C 8.2439999,3.0000001 2,9.2440001 2,17 2,24.755999 8.2439999,31 16,31 23.756,31 30,24.755999 30,17 30,9.2440001 23.756,3.0000001 16,3.0000001 Z"/>
 <path style="fill:#fead38" d="M 16,2.0000001 C 8.2439999,2.0000001 2,8.2440001 2,16 2,23.755999 8.2439999,30 16,30 23.756,30 30,23.755999 30,16 30,8.2440001 23.756,2.0000001 16,2.0000001 Z"/>
 <path style="fill:#3f3f3f" d="M 16.217383,2.0054689 A 21.003038,21.015963 0 0 0 2.7396484,20.480274 c 0.8161233,2.42995 2.2732154,4.555889 4.1794924,6.179687 A 21.003038,21.015963 0 0 1 6.9,25.819141 21.003038,21.015963 0 0 1 24.741797,5.0597657 C 22.40135,3.1899162 19.447426,2.0544186 16.217383,2.0054689 Z"/>
 <path style="fill:#3f3f3f" d="M 26.319532,6.5445316 A 21.003038,21.015963 0 0 0 9,27.216406 21.003038,21.015963 0 0 0 9.047852,28.152929 c 1.297026,0.741159 2.719369,1.288578 4.236915,1.584571 A 21.003038,21.015963 0 0 1 29.09082,11.05625 C 28.457252,9.3709091 27.511789,7.8457742 26.319532,6.5445316 Z"/>
 <path style="fill:#ffffff;opacity:0.2" d="M 16 2 C 8.2439999 2 2 8.2440001 2 16 C 2 16.168842 2.0195214 16.33264 2.0253906 16.5 C 2.2891326 8.9794326 8.4128417 3 16 3 C 23.587158 3 29.710867 8.9794326 29.974609 16.5 C 29.980479 16.33264 30 16.168842 30 16 C 30 8.2440001 23.756 2 16 2 z"/>
 <circle style="opacity:0.2" cx="19.5" cy="18.5" r="5.5"/>
 <circle style="opacity:0.2" cx="28" cy="15" r="4"/>
 <circle style="fill:#ffffff" cx="19.5" cy="17.5" r="5.5"/>
 <circle style="fill:#3f3f3f" cx="18.5" cy="19.5" r="2.5"/>
 <circle style="fill:#ffffff" cx="28" cy="14" r="4"/>
 <circle style="fill:#3f3f3f" cx="27" cy="15" r="2"/>
 <path style="opacity:0.1" d="M 24,27.666667 C 24,27.666667 22.209138,29 20,29 c -2.209138,0 -4,-2.527241 -4,-4 0,0 2.120127,1.544871 3.333334,2 C 21.62713,27.860508 24,27.666667 24,27.666667 Z"/>
 <path style="fill:#3f3f3f" d="M 24,26.666667 C 24,26.666667 22.209138,28 20,28 c -2.209138,0 -4,-2.527241 -4,-4 0,0 2.120127,1.544871 3.333334,2 C 21.62713,26.860508 24,26.666667 24,26.666667 Z"/>
 <path style="opacity:0.2" d="M 7.9041417,20.731422 C 10.984191,19.259899 13.703367,20.078627 13.977593,22.5601 14.251818,25.041575 11.97725,28.246111 8.8972002,29.717635 5.8171517,31.189157 0.28487062,26.550882 0.0106452,24.069408 -0.26358021,21.587934 4.8240935,22.202945 7.9041417,20.731422 Z"/>
 <path style="fill:#cccccc" d="M 7.9041417,19.731422 C 10.984191,18.259899 13.703367,19.078627 13.977593,21.5601 14.251818,24.041575 11.97725,27.246111 8.8972002,28.717635 5.8171517,30.189157 0.28487062,25.550882 0.0106452,23.069408 -0.26358021,20.587934 4.8240935,21.202945 7.9041417,19.731422 Z"/>
 <path style="opacity:0.2;fill:#ffffff" d="M 11.107422 19.009766 C 10.163801 18.950545 9.0593154 19.178648 7.9042969 19.730469 C 4.8242487 21.201992 -0.26445979 20.588839 0.009765625 23.070312 C 0.022315539 23.183877 0.057960734 23.305928 0.091796875 23.427734 C 0.73313904 21.695933 5.1279417 22.056899 7.9042969 20.730469 C 10.955656 19.272653 13.650181 20.066523 13.966797 22.494141 C 14.005813 22.175056 14.011899 21.862631 13.978516 21.560547 C 13.807124 20.009626 12.680123 19.108467 11.107422 19.009766 z"/>
</svg>
